X:1
T:Title
%%score { ( 1 3 ) | ( 2 4 ) }
L:1/8
Q:1/4=108
M:4/4
K:G
V:1 treble nm="Grand Piano"
V:3 treble 
V:2 bass 
V:4 bass 
V:1
 D2 G>A B2 B2 | [Ec]4 z4 | B2 A>^G A4 | [CA]2 [B,G]>[B,F] [B,G]4 | D2 G>A B2 B2 | [Ec]4 z4 | %6
w: D.~B.~Towner * * * *||||||
 [Fd]2 [FA]>[GB] [Ac]2 [CDF]2 | [B,DG]8 | [DFA]2 [CFA]>[B,GB] [Ac]2 [Ac]2 | B4 z4 | %10
w: ||||
 [DFA]2 [DFA]>[DGB] [DAc]2 [DFA]2 | [DG]2 [CDA]2 .[B,DB]2 A2 | D2 G>A B2 B2 | [Ec]4 z4 | %14
w: ||||
 [Fd]2 [FA]>[GB] [Ac]2 [CDF]2 | [B,DG]8 |] %16
w: ||
V:2
 [G,B,]2 [G,B,]>[G,C] [G,D]2 [G,D]2 | G,4 [G,D]4 | [D,G,D]2 [D,F,C]>[D,F,C] [D,F,C]4 | %3
 [G,,G,]2 [G,,G,]>[G,,G,] [G,,G,]4 | [G,B,]2 [G,B,]>[G,C] [G,D]2 [G,D]2 | G,4 [G,D]4 | %6
 [D,A,]2 [D,D]>[D,D] [D,D]2 D,2 | G,,8 | D,2 D,>D, [D,A,]2 [D,F,]2 | [G,G]4 B,2- [G,,B,]2 | %10
 D,C A,>G, F,D,D,C, | B,,2 D,2 G,G, [D,F,C]2 | [G,B,]2 [G,B,]>[G,C] [G,D]2 [G,D]2 | G,4 [G,D]4 | %14
 [D,A,]2 [D,D]>[D,D] [D,D]2 D,2 | G,,8 |] %16
V:3
 x8 | z2 E,2 B4 | x8 | x8 | x8 | z2 E,2 B4 | x8 | x8 | x8 | z2 D,2 [Gd]4 | x8 | x8 | x8 | %13
 z2 E,2 B4 | x8 | x8 |] %16
V:4
 x8 | C,2 z2 z4 | x8 | x8 | x8 | C,2 z2 z4 | x8 | x8 | x8 | z4 B,,2 z2 | x8 | x8 | x8 | C,2 z2 z4 | %14
 x8 | x8 |] %16

